X:1
T:Misty
C:Erroll Garner & Johnny Burke
L:1/4
M:C
I:linebreak $
K:D treble
"Eb7b5" (3z A F S|:"D" C2"Bm" z A,/B,/ |"Am" =C/B/B/B/"D7" B/A/F/D/ |
"G" B,2"G6" (3z/ F,/G,/ (3B,/D/F/ |"Gm" A/A/ A/G/"C7" A3/2 G/ ||1$
"F#m" F (3z/ G/A/"Bm" D (3z/ E/F/ |"Em" (3G B, B,"A7" (3C D E |"C7" F4 "B7" x4|
"E7" z2"Eb7b5" (3z A F :|2$"F#m" F (3z/ G/A/"Bm" D (3z/ E/F/ |"Em" (3G B, B,"A7" (3C D E |
"D6" D4 "D#" x4|"D6" (3z D E"Bm" (3F A B ||$"Am" (3=c =c =c"AmM" =c2 |"Am" (3z =c d"Ab7" (3_e d =c |
"G" (3B B B"Am" B2 |"Bm" (3z D E"Em" (3G A B |$"Abm" c/c/c/B/"C#7" c2 |
"Abm" z/ c/c/B/"G7" (3e c B |"F#m" A4 "F7" x4|"Em" z2"Eb7b5" (3z A "_D.S. al 3rd end." F ||3$
"F#m" (3F G A"Bm" (3D E F |"Em" (3G B, B,"A7" (3C D E |"Bb" D4 "C" x4|"D6" z4 |]

